app/images/openVPN.svg

<svg width="351" height="65" viewBox="0 0 351 65" fill="none" xmlns="http://www.w3.org/2000/svg">
<g clip-path="url(#clip0_1827_7956)">
<path d="M43.8076 33.6657C43.8076 28.0122 39.1915 23.428 33.354 23.428C27.5144 23.428 22.9023 27.9944 22.9023 33.6657C22.9023 35.7608 23.5552 37.8044 24.7705 39.5073C25.9766 41.2028 27.6946 42.4799 29.6799 43.1569L25.5719 64.1805H40.9932L37.028 43.1569C40.9914 41.6361 43.8057 38.0835 43.8057 33.6637L43.8076 33.6657Z" fill="#1A3967"/>
<path d="M66.4367 33.5124C66.4367 15.8289 51.6662 1.46594 33.5016 1.46594C15.3363 1.46594 0.560547 15.8147 0.560547 33.5124C0.560547 45.2571 7.04476 55.4771 16.7069 60.9824L18.78 47.2832C15.5635 43.8175 13.7655 39.2989 13.734 34.6017C13.734 24.0907 22.5283 15.5401 33.3374 15.5401C44.1445 15.5401 52.9429 24.0907 52.9429 34.6037C52.9457 39.3485 51.1537 43.9238 47.9171 47.4356L50.0061 61.1349C59.8791 55.6239 66.4379 45.2614 66.4379 33.5174M110.551 45.2622C117.19 45.2622 122.503 40.0422 122.503 33.664C122.503 27.2877 117.168 22.0915 110.551 22.0915C103.934 22.0915 98.601 27.3095 98.601 33.6858C98.601 40.0642 103.934 45.286 110.553 45.286V45.2622L110.551 45.2622ZM110.551 54.7079C98.601 54.7079 88.8651 45.286 88.8651 33.6135C88.8651 21.9441 98.6016 12.5212 110.551 12.5212C122.503 12.5212 132.239 21.9431 132.239 33.6135C132.239 45.285 122.501 54.7079 110.551 54.7079ZM136.789 13.8037V53.5951C136.784 53.6917 136.799 53.7883 136.833 53.879C136.867 53.9696 136.92 54.0523 136.988 54.1218C137.056 54.1894 137.138 54.242 137.228 54.2762C137.318 54.3103 137.414 54.3252 137.51 54.3199H145.22C145.317 54.3258 145.413 54.3113 145.503 54.2771C145.593 54.2429 145.675 54.1899 145.742 54.1218C145.812 54.053 145.865 53.9705 145.9 53.8797C145.935 53.7889 145.949 53.6919 145.943 53.5951V38.2305H154.219C154.219 38.2305 165.75 37.6522 165.75 25.5452C165.75 13.4401 154.087 12.9371 154.087 12.9371H137.434C137.077 12.9371 136.789 13.2262 136.789 13.8044L136.789 13.8037ZM151.837 19.1444C151.837 19.1444 157.894 19.0018 157.894 25.5228C157.894 31.9012 151.837 31.9012 151.837 31.9012H145.811V19.6059C145.811 19.0276 146.253 19.1603 146.253 19.1603L151.837 19.1464L151.837 19.1444Z" fill="#EA7D1F"/>
<path d="M284.392 13.8036V53.5951C284.386 53.6915 284.401 53.7882 284.436 53.8782C284.484 54.0145 284.575 54.1316 284.697 54.2114C284.819 54.2913 284.963 54.3293 285.109 54.3198H292.823C292.92 54.326 293.017 54.3115 293.107 54.2773C293.198 54.2431 293.279 54.1901 293.347 54.1218C293.415 54.0525 293.469 53.9703 293.504 53.8802C293.536 53.7887 293.55 53.6919 293.546 53.5951V38.2304H301.832C301.832 38.2304 313.367 37.6522 313.367 25.5452C313.367 13.4401 301.69 13.0083 301.69 13.0083H285.037C284.82 12.937 284.392 13.2262 284.392 13.8044L284.392 13.8036ZM299.442 19.1443C299.442 19.1443 305.496 19.0018 305.496 25.5227C305.496 31.9011 299.442 31.9011 299.442 31.9011H293.4V19.604C293.4 19.0258 293.841 19.1584 293.841 19.1584L299.442 19.1443Z" fill="#1A3967"/>
<path d="M235.239 12.9365H229.325C229.179 12.9271 229.033 12.9651 228.911 13.0449C228.789 13.1246 228.697 13.2417 228.648 13.3781C228.612 13.4688 228.597 13.5661 228.604 13.6632V38.3766L213.554 12.9362H206.19C205.972 12.9442 205.764 13.0284 205.604 13.1738C205.441 13.3208 205.335 13.5189 205.304 13.7342V53.5236C205.294 53.6686 205.331 53.8128 205.41 53.9356C205.489 54.0584 205.605 54.1534 205.742 54.2068C205.832 54.2411 205.929 54.2559 206.025 54.2504H211.939C212.036 54.2558 212.132 54.2406 212.222 54.2057C212.312 54.1709 212.393 54.1172 212.46 54.0484C212.528 53.9796 212.581 53.8973 212.615 53.8068C212.649 53.7164 212.663 53.6198 212.656 53.5236V24.969L229.829 54.1113L229.909 54.2579H235.022C235.118 54.2636 235.215 54.2485 235.305 54.2136C235.394 54.1787 235.475 54.1249 235.542 54.0559C235.61 53.988 235.662 53.9062 235.695 53.8163C235.73 53.7262 235.745 53.6296 235.739 53.5331V13.6629C235.761 13.5814 235.766 13.4961 235.752 13.4128C235.738 13.3294 235.706 13.25 235.659 13.1797C235.612 13.1105 235.55 13.0526 235.477 13.0104C235.404 12.9682 235.323 12.9429 235.239 12.9362L235.239 12.9365Z" fill="#EA7D1F"/>
<path d="M349.063 12.9364H343.153C342.853 12.9191 342.577 13.0989 342.476 13.378C342.44 13.468 342.425 13.5647 342.432 13.6611V38.3785L327.384 12.9381H320.014C319.668 12.9076 319.341 13.0982 319.202 13.4114C319.156 13.513 319.131 13.6227 319.128 13.7342V53.3822C319.11 53.7839 319.441 54.1162 319.849 54.103H325.781C325.975 54.1149 326.165 54.0425 326.301 53.905C326.44 53.7665 326.513 53.5766 326.502 53.3822V24.967L343.799 54.1113L343.876 54.2578H348.972C349.272 54.2748 349.547 54.0949 349.647 53.8162C349.682 53.7262 349.698 53.6295 349.691 53.533V13.6588C349.705 13.4759 349.646 13.2949 349.524 13.1558C349.403 13.0193 349.229 12.9389 349.044 12.934M263.288 53.6646L278.337 13.8691C278.492 13.3943 278.122 12.912 277.616 12.9305H270.857C270.55 12.93 270.269 13.1032 270.136 13.376L260.261 39.4688L250.385 13.3659C250.257 13.0887 249.973 12.9134 249.664 12.9204H242.893C242.534 12.922 242.227 13.1747 242.162 13.5224C242.139 13.6338 242.141 13.7487 242.17 13.859L257.378 53.6626C257.512 53.9353 257.792 54.1085 258.099 54.1081H262.665C262.948 54.0891 263.197 53.9176 263.312 53.6626" fill="#1A3967"/>
<path d="M170.597 53.5221C170.59 53.6186 170.604 53.7156 170.638 53.8064C170.672 53.8973 170.725 53.9799 170.794 54.0488C170.862 54.1163 170.944 54.1688 171.034 54.203C171.124 54.2371 171.22 54.252 171.316 54.2468H199.202C199.299 54.2528 199.395 54.2382 199.485 54.2041C199.576 54.1699 199.657 54.1169 199.725 54.0488C199.794 53.9802 199.848 53.8977 199.883 53.8068C199.918 53.716 199.932 53.6189 199.926 53.5221V47.7358C199.932 47.64 199.918 47.544 199.884 47.4541C199.85 47.3641 199.797 47.2822 199.729 47.2138C199.66 47.1454 199.578 47.0919 199.488 47.057C199.397 47.022 199.3 47.0064 199.202 47.0111H180.334C180.238 47.0176 180.141 47.0032 180.051 46.969C179.96 46.9348 179.879 46.8816 179.812 46.813C179.744 46.7441 179.691 46.6622 179.656 46.5722C179.622 46.4823 179.606 46.3863 179.611 46.2903V37.1416C179.607 37.0453 179.622 36.9491 179.657 36.8589C179.691 36.7687 179.744 36.6863 179.812 36.6169C179.879 36.5487 179.961 36.4956 180.051 36.4614C180.141 36.4273 180.238 36.4127 180.334 36.4189H192.875C193.021 36.4279 193.166 36.3897 193.288 36.31C193.411 36.2303 193.503 36.1135 193.552 35.9773C193.586 35.8863 193.601 35.789 193.594 35.6921V29.9058C193.601 29.8096 193.587 29.713 193.553 29.6226C193.519 29.5321 193.466 29.4498 193.397 29.3811C193.329 29.3132 193.248 29.2603 193.158 29.2258C193.068 29.1914 192.971 29.1761 192.875 29.1811H180.334C180.238 29.1876 180.141 29.1733 180.051 29.139C179.96 29.1048 179.879 29.0516 179.812 28.983C179.744 28.9142 179.691 28.8323 179.656 28.7423C179.621 28.6524 179.606 28.5563 179.611 28.4603V20.6878C179.606 20.5914 179.622 20.4952 179.656 20.405C179.691 20.3148 179.744 20.2324 179.812 20.163C179.879 20.0948 179.961 20.0418 180.051 20.0076C180.141 19.9734 180.238 19.9589 180.334 19.965H199.217C199.313 19.9706 199.41 19.9555 199.5 19.9206C199.59 19.8857 199.672 19.8319 199.739 19.763C199.808 19.6946 199.862 19.6124 199.897 19.522C199.931 19.4315 199.946 19.3348 199.94 19.2383V13.452C199.946 13.3541 199.932 13.256 199.898 13.1639C199.864 13.0718 199.81 12.9878 199.741 12.9173C199.672 12.8477 199.588 12.7939 199.496 12.7597C199.404 12.7255 199.305 12.7117 199.207 12.7193H171.324C171.227 12.7122 171.13 12.7261 171.038 12.7599C170.947 12.7938 170.864 12.8468 170.796 12.9154C170.727 12.984 170.673 13.0665 170.638 13.1573C170.603 13.2482 170.589 13.3453 170.595 13.4421V53.5224L170.597 53.5221Z" fill="#EA7D1F"/>
</g>
<defs>
<clipPath id="clip0_1827_7956">
<rect width="351" height="63.9595" fill="white" transform="translate(0 0.603516)"/>
</clipPath>
</defs>
</svg>

<svg width="351" height="65" fill="none" xmlns="http://www.w3.org/2000/svg"><g clip-path="url(#a)"><path d="M43.808 33.666c0-5.654-4.617-10.238-10.454-10.238-5.84 0-10.452 4.566-10.452 10.238 0 2.095.653 4.138 1.868 5.841a9.968 9.968 0 0 0 4.91 3.65L25.572 64.18h15.421l-3.965-21.023c3.963-1.52 6.778-5.073 6.778-9.493l.002.002Z" fill="#1A3967"/><path d="M66.437 33.512c0-17.683-14.77-32.046-32.935-32.046C15.336 1.466.56 15.815.56 33.512c0 11.745 6.484 21.965 16.146 27.47l2.073-13.699a18.825 18.825 0 0 1-5.046-12.681c0-10.511 8.794-19.062 19.603-19.062 10.807 0 19.606 8.55 19.606 19.064a18.915 18.915 0 0 1-5.026 12.832l2.09 13.699c9.872-5.511 16.43-15.874 16.43-27.618m44.114 11.745c6.639 0 11.952-5.22 11.952-11.598 0-6.376-5.335-11.573-11.952-11.573s-11.95 5.218-11.95 11.595c0 6.378 5.333 11.6 11.952 11.6v-.024h-.002Zm0 9.446c-11.95 0-21.686-9.422-21.686-21.094 0-11.67 9.737-21.093 21.686-21.093 11.952 0 21.688 9.422 21.688 21.093s-9.738 21.094-21.688 21.094Zm26.238-40.904v39.791a.705.705 0 0 0 .199.527.686.686 0 0 0 .522.198h7.71a.679.679 0 0 0 .68-.44.674.674 0 0 0 .043-.285V38.231h8.276s11.531-.579 11.531-12.686c0-12.105-11.663-12.608-11.663-12.608h-16.653c-.357 0-.645.29-.645.867Zm15.048 5.34s6.057-.142 6.057 6.379c0 6.378-6.057 6.378-6.057 6.378h-6.026V19.606c0-.578.442-.446.442-.446l5.584-.014v-.002Z" fill="#EA7D1F"/><path d="M284.392 13.804v39.791a.667.667 0 0 0 .044.283.67.67 0 0 0 .673.442h7.714a.678.678 0 0 0 .681-.44.768.768 0 0 0 .042-.285V38.23h8.286s11.535-.578 11.535-12.685c0-12.105-11.677-12.537-11.677-12.537h-16.653c-.217-.071-.645.218-.645.796Zm15.05 5.34s6.054-.142 6.054 6.379c0 6.378-6.054 6.378-6.054 6.378H293.4V19.604c0-.578.441-.446.441-.446l5.601-.014Z" fill="#1A3967"/><path d="M235.239 12.937h-5.914a.667.667 0 0 0-.677.442.646.646 0 0 0-.044.284v24.714l-15.05-25.44h-7.364a.934.934 0 0 0-.886.798v39.789c-.01.145.027.289.106.412a.687.687 0 0 0 .615.315h5.914a.677.677 0 0 0 .676-.444.667.667 0 0 0 .041-.283V24.969l17.173 29.142.08.147h5.113a.674.674 0 0 0 .673-.442.668.668 0 0 0 .044-.283v-39.87a.587.587 0 0 0-.08-.483.557.557 0 0 0-.42-.244Z" fill="#EA7D1F"/><path d="M349.063 12.936h-5.91a.677.677 0 0 0-.677.442.638.638 0 0 0-.044.283V38.38l-15.048-25.44h-7.37a.81.81 0 0 0-.812.472.837.837 0 0 0-.074.323v39.648a.694.694 0 0 0 .721.721h5.932a.683.683 0 0 0 .721-.72V24.966l17.297 29.144.077.147h5.096c.3.017.575-.163.675-.442a.652.652 0 0 0 .044-.283V13.659a.664.664 0 0 0-.647-.725m-85.756 40.73 15.049-39.795a.72.72 0 0 0-.721-.938h-6.759a.8.8 0 0 0-.721.445l-9.875 26.093-9.876-26.103a.774.774 0 0 0-.721-.446h-6.771a.743.743 0 0 0-.731.602.736.736 0 0 0 .008.337l15.208 39.804a.801.801 0 0 0 .721.445h4.566a.764.764 0 0 0 .647-.445" fill="#1A3967"/><path d="M170.597 53.522a.672.672 0 0 0 .437.681.69.69 0 0 0 .282.044h27.886a.679.679 0 0 0 .523-.198.692.692 0 0 0 .201-.527v-5.786a.676.676 0 0 0-.438-.679.701.701 0 0 0-.286-.046h-18.868a.671.671 0 0 1-.522-.198.696.696 0 0 1-.201-.523v-9.148a.7.7 0 0 1 .44-.68.678.678 0 0 1 .283-.043h12.541a.679.679 0 0 0 .719-.727v-5.786a.667.667 0 0 0-.197-.525.685.685 0 0 0-.522-.2h-12.541a.67.67 0 0 1-.522-.198.707.707 0 0 1-.201-.523v-7.772a.7.7 0 0 1 .201-.525.668.668 0 0 1 .522-.198h18.883a.676.676 0 0 0 .522-.202.686.686 0 0 0 .201-.525v-5.786a.707.707 0 0 0-.199-.535.678.678 0 0 0-.534-.198h-27.883a.683.683 0 0 0-.729.723v40.08h.002Z" fill="#EA7D1F"/></g><defs><clipPath id="a"><path fill="#fff" transform="translate(0 .604)" d="M0 0h351v63.959H0z"/></clipPath></defs></svg>
